public/images/icons/payroll.svg

<?xml version="1.0" encoding="UTF-8"?>
<svg width="52px" height="52px" viewBox="0 0 52 52" version="1.1" xmlns="http://www.w3.org/2000/svg" xmlns:xlink="http://www.w3.org/1999/xlink">
    <!-- Generator: Sketch 52.2 (67145) - http://www.bohemiancoding.com/sketch -->
    <title>Group 11</title>
    <desc>Created with Sketch.</desc>
    <g id="Page-1" stroke="none" stroke-width="1" fill="none" fill-rule="evenodd">
        <g id="Homepage" transform="translate(-966.000000, -2738.000000)">
            <g id="services" transform="translate(139.000000, 2503.000000)">
                <g id="Group-11" transform="translate(828.000000, 236.000000)">
                    <circle id="Oval-Copy-2" stroke="#5C8098" stroke-width="2" cx="25" cy="25" r="25"></circle>
                    <path d="M23.7328818,27.8576055 C24.1852242,28.7348455 24.0000548,30.0386366 23.1704298,30.662922 C22.9108619,30.8580112 22.5990499,30.9806859 22.2736808,31.0454952 L22.3821371,31.8857014 L20.9146696,31.8857014 L21.0264325,31.0200344 C20.7159431,30.9429907 20.4239706,30.8087429 20.1809358,30.6100165 C19.7150363,30.2297579 19.4739854,29.6620152 19.3635451,29.0830302 L20.4805134,28.8310675 C20.5770661,29.4305535 21.022134,29.9037274 21.6821306,29.9037274 C22.0541227,29.9037274 22.3341915,29.8094894 22.5229981,29.6203521 C22.764049,29.3786399 22.890361,29.0135916 22.7604118,28.6935131 C22.5897914,28.273906 22.0690024,28.1518926 21.6636137,28.0318631 C21.2059807,27.8966233 20.7304921,27.7756019 20.3373378,27.504461 C19.1651493,26.6956674 19.2474836,24.7401462 20.6048415,24.1482654 C20.7433879,24.0874241 20.8895394,24.0467529 21.0383363,24.0156709 L20.9146696,23.0580805 L22.3821371,23.0580805 L22.2564865,24.0318732 C22.5005133,24.088416 22.735943,24.1750489 22.9445892,24.3069821 C23.3860198,24.5857282 23.6250868,25.031788 23.7299059,25.5092606 L22.5580481,25.741053 C22.5018359,25.5747312 22.4122272,25.4196518 22.2730194,25.3078889 C22.1100042,25.1772783 21.8937528,25.1174289 21.6804773,25.1108157 C21.2992267,25.0982506 20.8012533,25.1971179 20.6554324,25.5813444 C20.5750821,25.7939585 20.6296409,26.0409613 20.7919948,26.2049685 C20.9378157,26.3521121 21.2916216,26.5048768 21.853743,26.6642548 C22.4155338,26.8239634 22.8315036,26.9889626 23.1006606,27.1592523 C23.3701482,27.329542 23.5807784,27.5623264 23.7328818,27.8576055 Z M36.9099998,10 L36.9099998,33.2774479 L33.6232428,33.2774479 L33.6232428,36.5638743 L30.3368165,36.5638743 L30.3368165,37.4784789 L28.0555955,39.7593692 L26.4509042,38.1553392 L24.8240587,39.7554013 L23.2375537,38.1688962 L21.6236039,39.7554013 L20.0374295,38.1688962 L18.4234797,39.7554013 L16.8273855,38.1593071 L15.2273235,39.7593692 L13,37.5323764 L13,16.5731833 L17.0188375,16.5731833 L17.0188375,13.286757 L20.3055945,13.286757 L20.3055945,10 L36.9099998,10 Z M27.7047656,27.4720563 C27.7047656,24.1383456 25.0019536,21.4355336 21.6685736,21.4355336 C18.3348629,21.4355336 15.6323815,24.1383456 15.6323815,27.4720563 C15.6323815,30.8054363 18.3348629,33.5082484 21.6685736,33.5082484 C25.0019536,33.5082484 27.7047656,30.8054363 27.7047656,27.4720563 Z M32.2397628,35.1202142 L32.2407548,14.669245 L18.4628282,14.7304171 L18.4628282,16.5731833 L30.3368165,16.5731833 L30.3368165,35.1202142 L32.2397628,35.1202142 Z M35.5261892,31.8337879 L35.5271812,11.3828187 L21.7495852,11.4439907 L21.7495852,13.286757 L33.6232428,13.286757 L33.6232428,31.8337879 L35.5261892,31.8337879 Z" id="payroll" fill="#5C8098"></path>
                </g>
            </g>
        </g>
    </g>
</svg>

<svg width="52" height="52" xmlns="http://www.w3.org/2000/svg">
  <g transform="translate(1 1)" fill="none" fill-rule="evenodd">
    <circle stroke="#5C8098" stroke-width="2" cx="25" cy="25" r="25"/>
    <path d="M23.733 27.858c.452.877.267 2.18-.563 2.805-.26.195-.571.318-.896.382l.108.84h-1.467l.111-.865a2.145 2.145 0 0 1-.845-.41c-.466-.38-.707-.948-.817-1.527l1.117-.252c.096.6.541 1.073 1.201 1.073.372 0 .652-.095.841-.284.241-.241.367-.606.237-.926-.17-.42-.691-.542-1.096-.662-.458-.135-.934-.256-1.327-.528-1.172-.808-1.09-2.764.268-3.356.138-.06.285-.101.433-.132l-.123-.958h1.467l-.126.974c.245.056.48.143.689.275.441.279.68.725.785 1.202l-1.172.232a.921.921 0 0 0-.285-.433.998.998 0 0 0-.593-.197c-.38-.013-.879.086-1.025.47a.595.595 0 0 0 .137.624c.146.147.5.3 1.062.46.562.159.978.324 1.247.494.27.17.48.403.632.699zM36.91 10v23.277h-3.287v3.287h-3.286v.914l-2.281 2.281-1.605-1.604-1.627 1.6-1.586-1.586-1.614 1.586-1.587-1.586-1.614 1.586-1.596-1.596-1.6 1.6L13 37.532V16.573h4.019v-3.286h3.287V10H36.91zm-9.205 17.472a6.037 6.037 0 1 0-12.074 0 6.037 6.037 0 0 0 12.074 0zm4.535 7.648V14.67l-13.777.06v1.843h11.874V35.12h1.903zm3.286-3.286l.001-20.451-13.777.061v1.843h11.873v18.547h1.903z" fill="#5C8098"/>
  </g>
</svg>
